X: 0006
T: Mikael-laaten, efter Johan Mikael Iiesselies
N: K.E.F. 17.
N: G-str\"angen uppst\"amt till a.
%R: polska
B: Paul B\"ackstr\"om's "L\aatar fr\aan Dalarna" collection" 1974
Z: 2022 John Chambers <jc:trillian.mit.edu>
M: 3/4
L: 1/8
Q:
K: D
% - - - - - - - - - -
|:\
"_>"[A2A2] (3(FGF) (3(EFE) | DE (3(CEC) D2 | "_>"[A2A2] (3(BAB) (3(cBc) |\
[1,3 df ec A2 :|2,4 [d4D4] z2 :|
|:\
"_>"[A2A2] (3(dAd) (3(fdf) | (3(afa) "_>"d'2 f2 | "_>"(3(gag) (3(fgf) ec |\
[1,3 (3(def) (3(dcB) [A2A2] :|2,4 (3(def) [d4D4] :|
% - - - - - - - - - -
